modules/themify-icons/icons/lock.svg

<?xml version="1.0" encoding="utf-8"?>
<!-- Generated by IcoMoon.io -->
<!DOCTYPE svg PUBLIC "-//W3C//DTD SVG 1.1//EN" "http://www.w3.org/Graphics/SVG/1.1/DTD/svg11.dtd">
<svg version="1.1" xmlns="http://www.w3.org/2000/svg" xmlns:xlink="http://www.w3.org/1999/xlink" width="17" height="17" viewBox="0 0 17 17">
<g>
</g>
	<path d="M9.5 10.972c0 0.366-0.207 0.672-0.5 0.846v2.154h-1v-2.153c-0.294-0.174-0.5-0.48-0.5-0.847 0-0.552 0.447-1 1-1 0.551 0 1 0.447 1 1zM14.965 8.46v7.080c0 0.827-0.673 1.5-1.5 1.5h-9.989c-0.827 0-1.5-0.673-1.5-1.5v-7.080c0-0.827 0.673-1.5 1.5-1.5h0.024v-1.988c0-2.757 2.243-5 5-5s5 2.243 5 5v1.992c0.811 0.018 1.465 0.681 1.465 1.496zM4.5 6.96h8v-1.988c0-2.206-1.794-4-4-4s-4 1.794-4 4v1.988zM13.965 8.46c0-0.264-0.207-0.474-0.465-0.493v0.004h-10v-0.011h-0.024c-0.275 0-0.5 0.224-0.5 0.5v7.080c0 0.276 0.225 0.5 0.5 0.5h9.989c0.275 0 0.5-0.224 0.5-0.5v-7.080z" fill="#000000" />
</svg>

<svg xmlns="http://www.w3.org/2000/svg" width="17" height="17"><path d="M9.5 10.972a.985.985 0 0 1-.5.846v2.154H8v-2.153a.984.984 0 0 1-.5-.847 1 1 0 1 1 2 0zm5.465-2.512v7.08c0 .827-.673 1.5-1.5 1.5H3.476c-.827 0-1.5-.673-1.5-1.5V8.46c0-.827.673-1.5 1.5-1.5H3.5V4.972c0-2.757 2.243-5 5-5s5 2.243 5 5v1.992a1.498 1.498 0 0 1 1.465 1.496zM4.5 6.96h8V4.972c0-2.206-1.794-4-4-4s-4 1.794-4 4V6.96zm9.465 1.5a.497.497 0 0 0-.465-.493v.004h-10V7.96h-.024a.5.5 0 0 0-.5.5v7.08a.5.5 0 0 0 .5.5h9.989a.5.5 0 0 0 .5-.5V8.46z"/></svg>
